src/front_assets/svg/download.svg

<?xml version="1.0" encoding="utf-8"?><!-- Uploaded to: SVG Repo, www.svgrepo.com, Generator: SVG Repo Mixer Tools -->
<svg width="800px" height="800px" viewBox="0 0 24 24" fill="none" xmlns="http://www.w3.org/2000/svg">
<path d="M12 3V16M12 16L16 11.625M12 16L8 11.625" stroke="#1C274C" stroke-width="1.5" stroke-linecap="round" stroke-linejoin="round"/>
<path d="M15 21H9C6.17157 21 4.75736 21 3.87868 20.1213C3 19.2426 3 17.8284 3 15M21 15C21 17.8284 21 19.2426 20.1213 20.1213C19.8215 20.4211 19.4594 20.6186 19 20.7487" stroke="#1C274C" stroke-width="1.5" stroke-linecap="round" stroke-linejoin="round"/>
</svg>

<svg xmlns="http://www.w3.org/2000/svg" width="800" height="800" fill="none" viewBox="0 0 24 24"><path stroke="#1C274C" stroke-linecap="round" stroke-linejoin="round" stroke-width="1.5" d="M12 3v13m0 0 4-4.375M12 16l-4-4.375M15 21H9c-2.828 0-4.243 0-5.121-.879C3 19.243 3 17.828 3 15m18 0c0 2.828 0 4.243-.879 5.121-.3.3-.662.498-1.121.628"/></svg>
